X: 304
T: Beyhûde Aşkına
C: Nikoğos Ağa
O: Turkey
F: http://compmusic.upf.edu/node/140
N: hicazkar--sarki--duyek--beyhude_askina--nikogos_aga
N: makam= hicazkar
N: form= sarki
N: usul= duyek = 8/4
M: 8/4
L: 1/16
K: C _1/4B _7/8e _7/8A ^f
Q: 1/4=108
%%MIDI tuningsystem comma53
f2 g6 =ag fe d4  | e3/2d/ ce d4 gf/=a/ gf ed c2  | \
w:   |   | 
z2 d4 e2 f2 g2 a2 gf  | 
w:   | 
g3c' ba gf g3d ef g2  | f2 g4 fg e2 de c2 =fe  | 
w:   |   | 
d6 cB dc BA G3/2F/ G2  | z2 Bc d2 e2 gf ed cB AG  | 
w:   |   | 
B2 AB AG F2 GA Bc de fg  | f2 g4 fg e2 de c2 =fe  | 
w:   |   | 
d6 cB dc BA G3/2F/ G2  | z2 Bc d2 e2 gf ed cB AG  | 
w:   |   | 
B2 AB AG F2 G4 z4  | B4 B4 dc BA G4  | \
w:   |   | 
z2 d4 c2 de f2 g4  | 
w:   | 
g2 ga g2 f2 fe ed d4  | gf ed e2 f2 g4 z4  | \
w:   |   | 
f2 g4 fg e2 de c2 =fe  | 
w:   | 
d6 cB dc BA G3/2F/ G2  | z2 Bc d2 e2 gf ed cB AG  | 
w:   |   | 
B2 AB AG F2 GA Bc de fg  | f2 g4 fg e2 de c2 =fe  | 
w:   |   | 
d6 cB dc BA G3/2F/ G2  | z2 Bc d2 e2 gf ed cB AG  | 
w:   |   | 
B2 AB AG F2 G4 z4  | B4 B4 dc BA G4  | \
w:   |   | 
z2 d4 c2 de f2 g4  | 
w:   | 
g2 ga g2 f2 fe ed d4  | gf ed e2 f2 g4 z4  | |


